X: 34103
T: Reel Des Skieurs
R: reel
M: 4/4
K: Gmajor
AB/c/|:"G"d2gd B2dB|G2BG D2B2|"D7"A^GAB cAFA|"G"GABc d2AB/c/|
"G"d2gd B2dB|G2BG D2B2|"D7"A^GAB cAFA|1 "G"GFGA G2AB/c/:|2 "G"GFGA G2GG||
K:C
|:"C"c2Gc e2ce|g6 cd|eceg fedc|"G"BGAB "G7"cBAF|
"C"c2Gc e2ce|g6 dc|eceg fedc|1 "G7"BGAB "C"c2GG:|2 "G7"BGAB "C"c2AB/c/||

